src/svg/ue922-logo-dmp.svg

<!-- Generated by IcoMoon.io -->
<svg version="1.1" xmlns="http://www.w3.org/2000/svg" width="32" height="32" viewBox="0 0 32 32">
<path d="M28.983 3.595h-25.966c-1.664 0-3.017 1.387-3.017 3.093v18.624c0 1.707 1.353 3.093 3.017 3.093h25.966c1.666 0 3.017-1.385 3.017-3.093v-18.622c-0.002-1.707-1.353-3.095-3.017-3.095zM29.209 25.312c0 0.128-0.103 0.235-0.229 0.235h-25.963c-0.126 0-0.229-0.105-0.229-0.235v-16.222h26.423v16.222h-0.002z"></path>
<path d="M7.858 23.529c0.773 0 1.394-0.64 1.394-1.429v-4.818c0-0.791-0.626-1.431-1.394-1.431s-1.394 0.64-1.394 1.431v4.818c0 0.789 0.624 1.429 1.394 1.429z"></path>
<path d="M13.282 23.529c0.773 0 1.397-0.64 1.397-1.429v-9.534c0-0.789-0.626-1.429-1.397-1.429s-1.392 0.64-1.392 1.429v9.534c0 0.789 0.624 1.429 1.392 1.429z"></path>
<path d="M18.713 23.529c0.773 0 1.392-0.64 1.392-1.429v-8.297c0-0.789-0.624-1.429-1.392-1.429-0.77 0-1.394 0.64-1.394 1.429v8.297c0 0.789 0.624 1.429 1.394 1.429z"></path>
<path d="M24.139 23.529c0.77 0 1.394-0.64 1.394-1.429v-4.203c0-0.791-0.626-1.431-1.394-1.431-0.773 0-1.394 0.64-1.394 1.431v4.203c-0.002 0.789 0.624 1.429 1.394 1.429z"></path>
</svg>

<svg xmlns="http://www.w3.org/2000/svg" width="32" height="32"><path d="M28.983 3.595H3.017C1.353 3.595 0 4.982 0 6.688v18.624c0 1.707 1.353 3.093 3.017 3.093h25.966c1.666 0 3.017-1.385 3.017-3.093V6.69c-.002-1.707-1.353-3.095-3.017-3.095zm.226 21.717a.234.234 0 0 1-.229.235H3.017a.232.232 0 0 1-.229-.235V9.09h26.423v16.222h-.002z"/><path d="M7.858 23.529c.773 0 1.394-.64 1.394-1.429v-4.818c0-.791-.626-1.431-1.394-1.431s-1.394.64-1.394 1.431V22.1c0 .789.624 1.429 1.394 1.429zm5.424 0c.773 0 1.397-.64 1.397-1.429v-9.534c0-.789-.626-1.429-1.397-1.429s-1.392.64-1.392 1.429V22.1c0 .789.624 1.429 1.392 1.429zm5.431 0c.773 0 1.392-.64 1.392-1.429v-8.297c0-.789-.624-1.429-1.392-1.429-.77 0-1.394.64-1.394 1.429V22.1c0 .789.624 1.429 1.394 1.429zm5.426 0c.77 0 1.394-.64 1.394-1.429v-4.203c0-.791-.626-1.431-1.394-1.431-.773 0-1.394.64-1.394 1.431V22.1c-.002.789.624 1.429 1.394 1.429z"/></svg>
